<?xml version="1.0" encoding="UTF-8"?>
<map version="1.2" tiledversion="1.3.0" orientation="orthogonal" renderorder="right-down" compressionlevel="0" width="11" height="11" tilewidth="32" tileheight="32" infinite="0" nextlayerid="4" nextobjectid="1">
 <editorsettings>
  <export target="tilemap.json" format="json"/>
 </editorsettings>
 <tileset firstgid="1" name="tiles" tilewidth="32" tileheight="32" tilecount="132" columns="12">
  <image source="tiles.png" width="384" height="352"/>
 </tileset>
 <layer id="2" name="level" width="11" height="11">
  <data encoding="csv">
45,46,46,46,46,46,46,46,46,46,47,
57,0,0,0,0,0,0,0,0,0,59,
57,0,0,0,0,0,0,0,0,0,59,
57,0,0,0,0,96,0,0,0,0,59,
57,0,0,0,53,56,55,0,0,0,59,
57,0,0,0,65,68,67,0,0,0,59,
57,0,0,0,77,79,80,0,0,0,59,
57,0,0,0,0,0,0,0,0,0,59,
57,0,0,0,0,0,0,0,0,0,59,
57,0,0,0,0,0,0,0,0,0,59,
69,46,46,46,46,46,46,46,46,46,71
</data>
 </layer>
</map>
